X:24
T:Butterfly, The
M:9/8
C:John Potts
E:15
Z:Boston
R:slip jig
K:EDor
B2EG2EF3|B2EG2E FED|B2EG2EF3|B2dd2B AFD:|
B2=ce2fg3|B2d g2e dBA|B2=ce2fg2a|b2ag2e dBA:|
B2BB2AG2A|B3 BAB dBA|~B3 B2AG2A|B2dg2e dBA:|
<end>
<start>
